packages/katcn/src/icons/svg/snow.svg

<svg width="24" height="25" viewBox="0 0 24 25" fill="none" xmlns="http://www.w3.org/2000/svg">
<path d="M20.7 14.368L17.8 15.168L14 12.968L17.8 10.768L20.7 11.568C20.8 11.568 20.9 11.568 21 11.568C21.4 11.568 21.8 11.268 22 10.868C22.1 10.368 21.8 9.76796 21.3 9.66796L18.9 8.96796L19.5 6.56796C19.6 6.06796 19.3 5.46796 18.8 5.36796C18.3 5.26796 17.7 5.56796 17.6 6.06796L16.8 8.96796L13 11.168V6.86796L15.2 4.66796C15.6 4.26796 15.6 3.66796 15.2 3.26796C14.8 2.86796 14.2 2.86796 13.8 3.26796L12 4.96796L10.3 3.26796C9.9 2.86796 9.3 2.86796 8.9 3.26796C8.5 3.66796 8.5 4.26796 8.9 4.66796L11 6.86796V11.268L7.2 9.06796L6.4 6.06796C6.3 5.56796 5.7 5.26796 5.2 5.36796C4.7 5.46796 4.3 6.06796 4.5 6.56796L5.1 8.96796L2.7 9.56796C2.2 9.76796 1.9 10.268 2 10.868C2.1 11.268 2.5 11.568 3 11.568C3.1 11.568 3.2 11.568 3.3 11.568L6.2 10.768L10 12.968L6.2 15.168L3.3 14.368C2.8 14.268 2.2 14.568 2.1 15.068C2 15.568 2.3 16.168 2.8 16.268L5.1 16.968L4.5 19.368C4.4 19.868 4.7 20.468 5.2 20.568C5.3 20.568 5.4 20.568 5.5 20.568C5.9 20.568 6.3 20.268 6.5 19.868L7.3 16.968L11 14.668V19.068L8.8 21.268C8.4 21.668 8.4 22.268 8.8 22.668C9.2 23.068 9.79999 23.068 10.2 22.668L11.9 20.968L13.6 22.668C13.8 22.868 14.1 22.968 14.3 22.968C14.5 22.968 14.8 22.868 15 22.668C15.4 22.268 15.4 21.668 15 21.268L13 19.068V14.668L16.8 16.868L17.6 19.768C17.7 20.168 18.1 20.468 18.6 20.468C18.7 20.468 18.8 20.468 18.9 20.468C19.4 20.368 19.7 19.768 19.6 19.268L18.9 16.968L21.3 16.368C21.8 16.268 22.1 15.668 22 15.168C21.8 14.568 21.3 14.168 20.7 14.368Z" fill="black"/>
</svg>

<svg xmlns="http://www.w3.org/2000/svg" fill="none" viewBox="0 0 24 25"><path fill="#000" d="m20.7 14.368-2.9.8-3.8-2.2 3.8-2.2 2.9.8h.3c.4 0 .8-.3 1-.7.1-.5-.2-1.1-.7-1.2l-2.4-.7.6-2.4c.1-.5-.2-1.1-.7-1.2s-1.1.2-1.2.7l-.8 2.9-3.8 2.2v-4.3l2.2-2.2c.4-.4.4-1 0-1.4s-1-.4-1.4 0l-1.8 1.7-1.7-1.7c-.4-.4-1-.4-1.4 0s-.4 1 0 1.4l2.1 2.2v4.4l-3.8-2.2-.8-3c-.1-.5-.7-.8-1.2-.7s-.9.7-.7 1.2l.6 2.4-2.4.6c-.5.2-.8.7-.7 1.3.1.4.5.7 1 .7h.3l2.9-.8 3.8 2.2-3.8 2.2-2.9-.8c-.5-.1-1.1.2-1.2.7s.2 1.1.7 1.2l2.3.7-.6 2.4c-.1.5.2 1.1.7 1.2h.3c.4 0 .8-.3 1-.7l.8-2.9 3.7-2.3v4.4l-2.2 2.2c-.4.4-.4 1 0 1.4s1 .4 1.4 0l1.7-1.7 1.7 1.7c.2.2.5.3.7.3s.5-.1.7-.3c.4-.4.4-1 0-1.4l-2-2.2v-4.4l3.8 2.2.8 2.9c.1.4.5.7 1 .7h.3c.5-.1.8-.7.7-1.2l-.7-2.3 2.4-.6c.5-.1.8-.7.7-1.2-.2-.6-.7-1-1.3-.8"/></svg>
